X:1
T:Valse
T:Valse
T:(Minute Waltz)
T:Frédéric Chopin
C:Frédéric Chopin
%%score { 1 | ( 2 3 ) }
L:1/8
Q:1/4=300
M:3/4
K:Db
V:1 treble nm="Piano" snm="Pno."
V:2 bass 
V:3 bass 
V:1
"^Molto vivace" (!>!A2 =GAcB | =GABAcB | =GAcBGA | cB=GAcB |!<(! =GAcBGA | cB=GAcB | =GAcBGA | %7
 Bcdef_g)!<)! |!mp!!>(! (b3 agf | fPee=d e2) | (b3 agf | fPe=defB)!>)! |!p! (=GAcBGA | cB=GAcB | %14
!<(! =GAcBGA | Bcdef_g)!<)! |!mp!!>(! (b3 agf | fPee=d e2)!>)! |!p! (b3 agf |!<(! efPe=de_f!<)! |: %20
!mp!"_cresc." (3(f)gf =ef_ag | fgf=efb | (3aba a=gc'b | aba=ga!mf!d' |!>(! c'bagfe | dcBAGF | %26
 ED!p!!<(!C!>)!EBA | =GABcde!<)! |!mp! (3fgf =ef_ag | fgf=efb | (3aba a=gc'b | aba=gaf' | %32
!>(! e'd'c'bag | fedcBA | =AcBFGC!>)! |1!p! D2) z2 f2 :|2 D2 z2!p! (A2- || A4 E2 | A4 =E2 | %39
!<(! A4 F2 | f4)!<)!!mp! ((f2- | f4) B2 | f4 c2 | e4 d2 | (4:3:4c2 e2 d2 B2 | A4 (E2 | %46
!<(! A4) =E2 | A4 F2 | f6)!<)! |!mf! (Tc2 =B2 c2 | a2 _B2 =g2 |!>(! =A2 _g2 _A2 | f2 F2 B2!>)! | %53
 (A4) E2 |{/a} A4 =E2 |{/a} A4 F2 |{/a)} f4 (f2 |{/a} f4 B2 |{/a} f4 c2 |{/a} e2 d2 c2 | %60
{/a} e2 d3 B) |{/a} (A4 E2 |{/a} A4 =E2 |{/a} A4 F2 | f6) | (f4 B2 | %66
 e4[Q:1/4=295]"^poco riten." __B2 |[Q:1/4=290] e2[Q:1/4=285] A2[Q:1/4=280] =d2 | %68
[Q:1/4=275] f2[Q:1/4=270] e2[Q:1/4=260] a2) |!p![Q:1/4=300]"^a tempo" (TA6- |!<(! TA6- | TA6- | %72
 TA6 | =GAcBGA | cB=GAcB | =GAcBGA | cB=GAcB!<)! |!f! =GAcBGA | cB=GAcB | =GAcBGA | Bcdef_g) | %81
!>(! (b3 agf | fPee=d e2)!>)! |!mf!!>(! (b3 agf | fPe=defB)!>)! |!p! (=GAcBGA | cB=GAcB | %87
!<(! =GAcBGA | Bcdef_g)!<)! |!mf!!>(! (b3 agf | fPee=d e2)!>)! |!p!!<(! (b3 agf | efPe=de_f!<)! | %93
!mf!"_cresc." (3fgf!<(! =ef_ag | fgf=efb | (3aba a=gc'b | aba=ga!<)!!f!d' |!>(! c'bagfe | dcBAGF | %99
 ED!>)!!p!!<(!CEBA | =GABcde!<)! |!f! (3fgf =ef_ag | fgf=efb | (3aba a=gc'b |!>(! aba=gaf' | %105
 e'd'c'bag!>)! |!mf!!>(! fedcBA | =AcBFGC!>)! | D2 z2!p! !>!f2-) | (3(fgf!<(! =ef_ag | fgf=efb | %111
 (3aba a=gc'b | aba=gad'!<)! |!mf!!>(! c'bagfe | dcBAGF | ED!>)!!p!!<(!CEBA | =GABcde!<)! | %117
!mp!"_cresc." (3fgf =ef_ag | fgf=efb | (3aba a=gc'b | aba=ga!f!!8va(!!>(! f'' | %121
 (9:6:9e''d''c''b'a'_g'f'e'!8va)!d' | %122
(9:6:9c'bagf[Q:1/4=295]e[Q:1/4=290]d[Q:1/4=285]c[Q:1/4=280]B!>)! | %123
[Q:1/4=270]!mf!!mf! =A[Q:1/4=260]!<(!c[Q:1/4=250]B[Q:1/4=240]F[Q:1/4=230]G[Q:1/4=220]C!<)! | %124
[Q:1/4=200]!f! D4) z2 |] %125
V:2
 z6 | z6 | z6 | z6 |!ped! .D,2 [A,DF]2 [A,DF]2!ped-up! |!ped! .F,2 [A,DF]2 [A,DF]2!ped-up! | %6
!ped! .D,2 [A,DF]2 [A,DF]2!ped-up! |!ped! .F,2 [A,DF]2 [A,DF]2!ped-up! | %8
!ped! A,,2 [A,CG]2 [A,CG]2!ped-up! |!ped! E,2 [A,CG]2 [A,CG]2!ped-up! | %10
!ped! A,,2 [CG]2 [CG]2!ped-up! |!ped! A,2 [CG]2 [CG]2!ped-up! |!ped! .D,2 [A,DF]2 [A,DF]2!ped-up! | %13
!ped! .F,2 [A,DF]2 [A,DF]2!ped-up! |!ped! .D,2 [A,DF]2 [A,DF]2!ped-up! | %15
!ped! .F,2 [A,DF]2 [A,DF]2!ped-up! |!ped! A,,2 [A,CG]2 [A,CG]2!ped-up! | %17
!ped! E,2 [A,CG]2 [A,CG]2!ped-up! |!ped! A,,2 [CG]2 [CG]2!ped-up! |!ped! A,2 [CG]2 A,,2!ped-up! |: %20
!ped! .=A,,2 [F,C_E]2 [F,CE]2!ped-up! |!ped! .B,,2 [F,D]2 [F,D]2!ped-up! | %22
!ped! .C,2 [A,EG]2 [A,EG]2!ped-up! |!ped! .D,2 [A,F]2 z2!ped-up! |!ped! (G,2 [B,E]2) z2!ped-up! | %25
!ped! A,,2 [F,A,D]2 z2!ped-up! |!ped! A,,2 [G,A,]2 [G,A,C]2!ped-up! |!ped! D,2 [A,DF]2 z2!ped-up! | %28
 z2 [_EF]2 [EF]2 | z2 [DF]2 [DF]2 | z2 [_GA]2 [GA]2 | D2 [FA]2 z2 |!ped! _G,2 [DEB]2 z2!ped-up! | %33
!ped! A,,2 [F,A,D]2 z2!ped-up! |!ped! _A,,2 [G,_A,]2 [G,A,]2!ped-up! |1 %35
!ped! D,2 [A,F]2 z2!ped-up! :|2!ped! D,2 [A,F]2 z2!ped-up! ||!ped! A,,2 [G,A,C]2 [G,A,C]2 | %38
 [G,A,C]2 [G,A,C]2 [G,A,C]2!ped-up! |!ped! D,2 [F,D]2 [F,D]2!ped-up! | %40
!ped! A,,2 [A,DF]2 [A,DF]2!ped-up! |!ped! E,2 [A,CG]2 [A,CG]2!ped-up! | %42
!ped! A,,2 [A,EG]2 [A,EG]2!ped-up! |!ped! D,2 [A,DF]2 [A,DF]2!ped-up! | %44
!ped! D,2 [A,DF]2 [A,DF]2!ped-up! |!ped! C,2 [G,A,]2 [G,A,]2!ped-up! | %46
!ped! A,,2 [G,A,C]2 [G,A,C]2!ped-up! |!ped! D,2 [F,D]2 [F,D]2 | =B,,2 [A,DF]2 [A,DF]2!ped-up! | %49
!ped! C,2 [A,CF]2 [A,CF]2!ped-up! |!ped! C,,2 [=G,C=E]2 z2!ped-up! |!ped! F,,2 z2 [F,C]2!ped-up! | %52
 z6 |!ped! C,2 [G,A,]2 [G,A,]2!ped-up! |!ped! A,,2 [G,A,C]2 [G,A,C]2!ped-up! | %55
!ped! D,2 [F,D]2 [F,D]2!ped-up! |!ped! A,,2 [A,DF]2 [A,DF]2!ped-up! | %57
!ped! E,2 [A,CG]2 [A,CG]2!ped-up! |!ped! A,,2 [A,EG]2 [A,EG]2!ped-up! | %59
!ped! D,2 [A,DF]2 [A,DF]2!ped-up! |!ped! D,2 [A,DF]2 [A,DF]2!ped-up! | %61
!ped! z2 [G,A,]2 [G,A,]2!ped-up! |!ped! A,,2 [G,A,C]2 [G,A,C]2!ped-up! | %63
!ped! _C,2 [F,A,E]2 [F,A,E]2!ped-up! |!ped! B,,2 [F,A,=D]2 [F,A,D]2!ped-up! | %65
!ped! E,2 [_D=G]2 [DG]2!ped-up! | z2 [D_G]2 [DG]2 | z2 [CG]2 z2 | z6 | z6 | z6 | z6 | z6 | z6 | %74
 z6 | z6 | z6 |!ped! .D,,2 [A,DF]2 [A,DF]2!ped-up! |!ped! .F,2 [A,DF]2 [A,DF]2!ped-up! | %79
!ped! .D,2 [A,DF]2 [A,DF]2!ped-up! |!ped! .F,2 [A,DF]2 [A,DF]2!ped-up! | %81
!ped! A,,2 [A,CG]2 [A,CG]2!ped-up! |!ped! E,2 [A,CG]2 [A,CG]2!ped-up! | %83
!ped! A,,2 [CG]2 [CG]2!ped-up! |!ped! A,2 [CG]2 [CG]2!ped-up! |!ped! .D,2 [A,DF]2 [A,DF]2!ped-up! | %86
!ped! .F,2 [A,DF]2 [A,DF]2!ped-up! |!ped! .D,2 [A,DF]2 [A,DF]2!ped-up! | %88
!ped! .F,2 [A,DF]2 [A,DF]2!ped-up! |!ped! A,,2 [A,CG]2 [A,CG]2!ped-up! | %90
!ped! E,2 [A,CG]2 [A,CG]2!ped-up! |!ped! A,,2 [CG]2 [CG]2!ped-up! |!ped! A,2 [CG]2 A,,2!ped-up! | %93
!ped! .=A,,2 [F,C_E]2 [F,CE]2!ped-up! |!ped! .B,,2 [F,D]2 [F,D]2!ped-up! | %95
!ped! .C,2 [A,EG]2 [A,EG]2!ped-up! |!ped! .D,2 [A,F]2 z2!ped-up! |!ped! (G,2 [B,E]2) z2!ped-up! | %98
!ped! A,,2 [F,A,D]2 z2!ped-up! |!ped! A,,2 [G,A,]2 [G,A,C]2!ped-up! |!ped! D,2 [A,DF]2 z2!ped-up! | %101
 z2 [_EF]2 [EF]2 | z2 [DF]2 [DF]2 | z2 [_GA]2 [GA]2 | D2 [FA]2 z2 |!ped! _G,2 [DEB]2 z2!ped-up! | %106
!ped! A,,2 [F,A,D]2 z2!ped-up! |!ped! _A,,2 [G,_A,]2 [G,A,]2!ped-up! |!ped! D,2 [A,F]2 z2!ped-up! | %109
!ped! .=A,,2 [F,C_E]2 [F,CE]2!ped-up! |!ped! .B,,2 [F,D]2 [F,D]2!ped-up! | %111
!ped! .C,2 [A,EG]2 [A,EG]2!ped-up! |!ped! .D,2 [A,F]2 z2!ped-up! |!ped! (G,2 [B,E]2) z2!ped-up! | %114
!ped! A,,2 [F,A,D]2 z2!ped-up! |!ped! A,,2 [G,A,]2 [G,A,C]2!ped-up! |!ped! D,2 [A,DF]2 z2!ped-up! | %117
 z2 [_EF]2 [EF]2 | z2 [DF]2 [DF]2 | z2 [_GA]2 [GA]2 | D2 [FA]2 z2 | %121
!ped! _G,,2[K:treble] [DEB]2 z2!ped-up! | z6 |[K:bass]!ped! A,,2 [G,_A,]2 [G,A,]2!ped-up! | %124
!ped! D,,2 [F,A,F]2 z2!ped-up! |] %125
V:3
 x6 | x6 | x6 | x6 | x6 | x6 | x6 | x6 | x6 | x6 | x6 | x6 | x6 | x6 | x6 | x6 | x6 | x6 | x6 | %19
 x6 |: x6 | x6 | x6 | x6 | x6 | x6 | x6 | x6 | =A,6 | B,6 | C6 | x6 | x6 | x6 | x6 |1 x6 :|2 x6 || %37
 x6 | x6 | x6 | x6 | x6 | x6 | x6 | x6 | x6 | x6 | x6 | x6 | x6 | x6 | x6 | x6 | x6 | x6 | x6 | %56
 x6 | x6 | x6 | x6 | x6 | C,6 | x6 | x6 | x6 | x6 | x6 | A,4 x2 | x6 | x6 | x6 | x6 | x6 | x6 | %74
 x6 | x6 | x6 | x6 | x6 | x6 | x6 | x6 | x6 | x6 | x6 | x6 | x6 | x6 | x6 | x6 | x6 | x6 | x6 | %93
 x6 | x6 | x6 | x6 | x6 | x6 | x6 | x6 | =A,6 | B,6 | C6 | x6 | x6 | x6 | x6 | x6 | x6 | x6 | x6 | %112
 x6 | x6 | x6 | x6 | x6 | =A,6 | B,6 | C6 | x6 | x2[K:treble] x4 | x6 |[K:bass] x6 | x6 |] %125

